X: 38662
T: Straid Na Cathrach
R: slip jig
M: 9/8
K: Gmixolydian
|:G,A,G, DEF EDC|G,DD G,EF EDC|G,A,G, DEF EDC|G,CC CDE GEC:|
|:G,A,G, BcA BAG|A,/B,/CD Bcd cBG|1 G,A,G, BcA GDB,|G,CC CDE GEC:|2 dcB cBA GDB,|G,CC CDE GEC||
|:[G,2D2]D DEF G2E|F2G EDC A,CE|[G,2D2]D DEF GDB,|G,CC CDE GEC:|

